X: 4
T: The Monaghan
R: jig
M: 6/8
L: 1/8
K: Edor
|: BGE FFE | BGE FGA | BGE BGE | AFD DFA |BGE FFE | BGE FGA | ded ABG | FDF AFD :||: EGB efg | fed edA | DFA dAG | FFF AFD |EGB efg | fed edc | ded ABG | FDF AFD :||: ggg eBe | ggg bge | ggg eag | fdf afd |ggg eBe | ggg bge | ded ABG | FDF AFD :||: EGB eBG | BGE AFD | EGB eBG | FFF AFD |EGB GBd | Beg egb | ged ABG | FDF AFD :|


Tune 67	Setting 27561

